svg/icon/ada.svg

<svg xmlns="http://www.w3.org/2000/svg" xmlns:xlink="http://www.w3.org/1999/xlink" width="32" height="32" viewBox="0 0 32 32">
  <defs>
    <linearGradient id="ada-c" x1="50%" x2="50%" y1="0%" y2="100%">
      <stop offset="0%" stop-color="#FFF" stop-opacity=".5"/>
      <stop offset="100%" stop-opacity=".5"/>
    </linearGradient>
    <circle id="ada-b" cx="16" cy="15" r="15"/>
    <filter id="ada-a" width="111.7%" height="111.7%" x="-5.8%" y="-4.2%" filterUnits="objectBoundingBox">
      <feOffset dy=".5" in="SourceAlpha" result="shadowOffsetOuter1"/>
      <feGaussianBlur in="shadowOffsetOuter1" result="shadowBlurOuter1" stdDeviation=".5"/>
      <feComposite in="shadowBlurOuter1" in2="SourceAlpha" operator="out" result="shadowBlurOuter1"/>
      <feColorMatrix in="shadowBlurOuter1" values="0 0 0 0 0   0 0 0 0 0   0 0 0 0 0  0 0 0 0.199473505 0"/>
    </filter>
    <path id="ada-e" d="M15.724719,5.05915178 C16.2039693,4.81328915 16.7889868,5.38365151 16.5343541,5.85471695 C16.3864781,6.2387083 15.8257584,6.34081755 15.5393516,6.04811879 C15.2359034,5.76721019 15.3348539,5.21199115 15.724719,5.05915178 Z M10.5699463,5.60582566 C10.8610808,5.48792409 11.2296165,5.75033621 11.1999313,6.06250495 C11.2308259,6.40139083 10.8096265,6.65082296 10.5128849,6.48976292 C10.1197215,6.33995221 10.164689,5.71204524 10.5699463,5.60582566 Z M21.1275275,6.49928158 C20.672575,6.44519829 20.600561,5.74146655 21.038582,5.59976833 C21.3783122,5.4367613 21.6900063,5.74244005 21.7397015,6.05925995 C21.6684571,6.32978456 21.4382322,6.57748602 21.1275275,6.49928158 Z M11.7428399,7.76428969 C12.2295665,7.46142328 12.9240893,7.9124779 12.8492167,8.46867044 C12.8239293,9.03027131 12.0657484,9.35563637 11.6379523,8.97597168 C11.2243391,8.67775643 11.2870078,7.99360284 11.7428399,7.76428969 Z M19.1730348,8.08565259 C19.3901762,7.53508472 20.2700663,7.51842707 20.5172227,8.05439245 C20.7615206,8.47148277 20.4610408,8.98797817 20.0257684,9.12978456 C19.4492167,9.23567964 18.9015805,8.62248331 19.1730348,8.08565259 Z M15.1039693,9.09852442 C15.0992417,8.62529564 15.5373726,8.2726726 15.994524,8.24043896 C16.2977524,8.30025508 16.6282472,8.42735081 16.7583122,8.72837839 C17.0007409,9.14362988 16.7854686,9.7153984 16.3474476,9.90598791 C16.1471277,10.016426 15.9103062,9.97499819 15.6921752,9.96212636 C15.358712,9.80106633 15.0779124,9.48521993 15.1039693,9.09852442 Z M7.43805229,9.78808634 C7.88266998,9.51918423 8.48253005,10.009936 8.31420421,10.4851118 C8.22152055,10.8961448 7.65992135,11.0633703 7.33888187,10.8009582 C6.99618322,10.5550955 7.05049606,9.96396519 7.43805229,9.78808634 Z M23.8995715,9.78722101 C24.2767929,9.49906525 24.8993017,9.82962231 24.8543341,10.2981999 C24.8796215,10.7254579 24.3414406,11.0476861 23.9669678,10.8276753 C23.554564,10.6453065 23.5124551,10.0210771 23.8995715,9.78722101 Z M17.2597714,10.6379511 C17.8822802,10.4179403 18.6216605,10.6812178 18.9764531,11.2272426 C19.4444891,11.8947386 19.1954636,12.9112881 18.4691667,13.2943059 C17.716593,13.7473075 16.6176925,13.3633162 16.3397514,12.5364909 C16.0242092,11.796307 16.4838894,10.8699684 17.2597714,10.6379511 Z M13.6073976,10.7107472 C14.2973027,10.3903578 15.2257884,10.6591518 15.5590318,11.353473 C15.9512057,12.0292978 15.6479773,12.970347 14.9468579,13.3192924 C14.2448589,13.7115044 13.2544741,13.4141545 12.9147439,12.6885731 C12.5337844,11.9868965 12.8720853,11.0338408 13.6073976,10.7107472 Z M9.95029616,11.9408175 C10.0027399,11.5035001 10.4220703,11.2189138 10.8451387,11.1894925 C11.3009708,11.2435758 11.6651088,11.5918722 11.714694,12.0457391 C11.6847889,12.4950631 11.3318654,12.9342194 10.8478874,12.9315152 C10.3154236,12.9766207 9.84859701,12.4554741 9.95029616,11.9408175 Z M20.7521752,11.2845709 C21.2988219,10.9715369 22.0578824,11.4272426 22.0335845,12.0450901 C22.0710758,12.6997142 21.2309858,13.1610447 20.686648,12.7770534 C20.1212007,12.457313 20.1652887,11.5568262 20.7521752,11.2845709 Z M12.1210508,13.591764 C12.7603811,13.4186975 13.4914056,13.7151821 13.8049688,14.2933324 C14.1484371,14.8752686 14.0080373,15.6837056 13.474584,16.1105309 C12.7903961,16.7365991 11.528557,16.4852199 11.1644191,15.6308121 C10.7459683,14.847578 11.2542442,13.7979295 12.1210508,13.591764 Z M19.048577,13.588519 C19.6700963,13.4136137 20.4002412,13.6493086 20.7343641,14.2063665 C21.1761232,14.8434676 20.9652487,15.793711 20.3075575,16.2044195 C19.618642,16.6813259 18.5515156,16.4309203 18.1724251,15.6852199 C17.7128549,14.9138841 18.1752837,13.8237813 19.048577,13.588519 Z M8.00899681,14.3153984 C8.56125069,14.1098819 9.1734246,14.7094492 8.94968647,15.2481188 C8.8130248,15.7388705 8.11003629,15.9202659 7.74688787,15.5584487 C7.32195034,15.2186975 7.47928167,14.4627213 8.00899681,14.3153984 Z M22.9780123,15.0971183 C22.9620703,14.646929 23.2968529,14.248227 23.7660983,14.2233486 C24.1443092,14.2822994 24.5120753,14.5824617 24.4821702,14.9875455 C24.5168029,15.5225374 23.8615305,15.8861934 23.3982222,15.6348143 C23.1810808,15.5262151 23.0697065,15.3070696 22.9780123,15.0971183 Z M5.29357452,14.5796493 C5.6258284,14.4369776 6.03680291,14.7202659 5.96094084,15.0832729 C5.94312975,15.4943059 5.32633814,15.6523373 5.09974144,15.3089084 C4.89953155,15.0704011 5.01937163,14.7026347 5.29357452,14.5796493 Z M26.2428299,14.5714287 C26.4767929,14.4075563 26.8521452,14.5253497 26.9448289,14.7942518 C27.1020503,15.0879241 26.8137744,15.4903038 26.4777824,15.4406553 C26.0061183,15.4829484 25.8535146,14.7757554 26.2428299,14.5714287 Z M13.9256885,16.5444952 C14.7999713,16.3208067 15.7397814,17.0380593 15.7452787,17.9237272 C15.8023401,18.8186975 14.876713,19.6123157 13.9817604,19.4056093 C13.2899863,19.2960366 12.7471877,18.640439 12.7696165,17.9527159 C12.7677474,17.2949549 13.2722852,16.6835974 13.9256885,16.5444952 Z M17.3880773,16.5426564 C18.2754436,16.2986326 19.2432897,17.028757 19.2292167,17.9348684 C19.2760533,18.8132892 18.3793416,19.5801902 17.5030798,19.4059338 C16.6784921,19.3010122 16.0700563,18.4097197 16.3002812,17.6224833 C16.4164931,17.0978754 16.8619903,16.6712664 17.3880773,16.5426564 Z M10.7123251,17.0878159 C11.3263681,16.9847332 11.9020403,17.6587191 11.6530148,18.2323265 C11.4713856,18.8435758 10.5671977,19.0093952 10.1674376,18.5100982 C9.69852205,18.0305958 10.048587,17.1540139 10.7123251,17.0878159 Z M20.8662982,17.1147494 C21.4138244,16.8891139 22.0859184,17.3550955 22.0438094,17.9397359 C22.0657984,18.583327 21.2360433,19.0271345 20.700611,18.651472 C20.0941542,18.3142086 20.204539,17.3216721 20.8662982,17.1147494 Z M23.7044191,19.9153984 C23.4900263,19.5222129 23.8794516,19.0010663 24.3231897,19.0738624 C24.5440693,19.0701848 24.698542,19.2414125 24.8399313,19.3850577 C24.8689568,19.6180485 24.9176625,19.8960366 24.7210808,20.0755931 C24.4541342,20.407989 23.8494366,20.3131269 23.7044191,19.9153984 Z M7.43618322,19.183327 C7.85089586,18.9117207 8.44767747,19.3168046 8.35444409,19.7938192 C8.30485888,20.2156688 7.76469896,20.4567721 7.40891685,20.2173995 C7.02707777,20.0000928 7.04115074,19.38138 7.43618322,19.183327 Z M15.6292867,20.0663989 C16.1721952,19.830704 16.8638594,20.2957121 16.8124051,20.8840301 C16.852645,21.5341112 15.9971627,21.9843005 15.4663481,21.5939273 C14.876713,21.2587191 14.9750038,20.2725644 15.6292867,20.0663989 Z M11.834534,20.9373562 C12.2969628,20.6979836 12.9174926,21.1113962 12.8753836,21.6205363 C12.8894566,22.0386001 12.4747439,22.3949008 12.0554136,22.3331377 C11.7080973,22.3257824 11.4816105,22.0194546 11.3702362,21.7281621 C11.3759533,21.4106932 11.5087669,21.0570966 11.834534,20.9373562 Z M19.5212307,20.9447115 C19.9967429,20.6555823 20.672575,21.0708338 20.6276075,21.6153443 C20.6398114,22.1844087 19.8760233,22.54893 19.4332747,22.1751064 C19.004599,21.8820831 19.0569328,21.1777024 19.5212307,20.9447115 Z M20.8579423,24.1958743 C20.6464081,23.8810014 20.8954336,23.5016612 21.2389019,23.4298386 C21.5150838,23.4851118 21.8070978,23.6894384 21.7490468,24.0044195 C21.7088069,24.430704 21.0750838,24.5614774 20.8579423,24.1958743 Z M10.2470378,23.9224292 C10.3312557,23.6728889 10.5353137,23.424863 10.8339243,23.4897629 C11.2691967,23.5201577 11.3983821,24.1655877 11.0174226,24.364506 C10.6748339,24.591764 10.2773826,24.2805688 10.2470378,23.9224292 Z M15.3661882,24.2087462 C15.4495265,23.8395736 15.9352637,23.6600171 16.2554236,23.8561231 C16.4669578,23.9454687 16.5287469,24.1783513 16.5830598,24.3762962 C16.5540343,24.4793789 16.5280873,24.5825698 16.50258,24.6856526 C16.3715255,24.838492 16.2030898,24.9913313 15.9849588,24.9858148 C15.5795915,25.0325428 15.2139144,24.5817045 15.3661882,24.2087462 Z"/>
    <filter id="ada-d" width="115.9%" height="117.5%" x="-8%" y="-6.3%" filterUnits="objectBoundingBox">
      <feOffset dy=".5" in="SourceAlpha" result="shadowOffsetOuter1"/>
      <feGaussianBlur in="shadowOffsetOuter1" result="shadowBlurOuter1" stdDeviation=".5"/>
      <feColorMatrix in="shadowBlurOuter1" values="0 0 0 0 0   0 0 0 0 0   0 0 0 0 0  0 0 0 0.204257246 0"/>
    </filter>
  </defs>
  <g fill="none" fill-rule="evenodd">
    <use fill="#000" filter="url(#ada-a)" xlink:href="#ada-b"/>
    <use fill="#3CC8C8" xlink:href="#ada-b"/>
    <use fill="url(#ada-c)" style="mix-blend-mode:soft-light" xlink:href="#ada-b"/>
    <circle cx="16" cy="15" r="14.5" stroke="#000" stroke-opacity=".097"/>
    <g fill-rule="nonzero">
      <use fill="#000" filter="url(#ada-d)" xlink:href="#ada-e"/>
      <use fill="#FFF" fill-rule="evenodd" xlink:href="#ada-e"/>
    </g>
  </g>
</svg>

<svg xmlns="http://www.w3.org/2000/svg" xmlns:xlink="http://www.w3.org/1999/xlink" width="32" height="32"><defs><linearGradient id="c" x1="50%" x2="50%" y1="0%" y2="100%"><stop offset="0%" stop-color="#FFF" stop-opacity=".5"/><stop offset="100%" stop-opacity=".5"/></linearGradient><circle id="b" cx="16" cy="15" r="15"/><filter id="a" width="111.7%" height="111.7%" x="-5.8%" y="-4.2%" filterUnits="objectBoundingBox"><feOffset dy=".5" in="SourceAlpha" result="shadowOffsetOuter1"/><feGaussianBlur in="shadowOffsetOuter1" result="shadowBlurOuter1" stdDeviation=".5"/><feComposite in="shadowBlurOuter1" in2="SourceAlpha" operator="out" result="shadowBlurOuter1"/><feColorMatrix in="shadowBlurOuter1" values="0 0 0 0 0 0 0 0 0 0 0 0 0 0 0 0 0 0 0.199473505 0"/></filter><path id="e" d="M15.725 5.06c.479-.247 1.064.324.81.795-.149.384-.71.486-.996.193-.303-.28-.204-.836.186-.989zm-5.155.546c.291-.118.66.144.63.457.03.338-.39.588-.687.427-.393-.15-.348-.778.057-.884zm10.558.893c-.455-.054-.527-.758-.09-.9.34-.162.652.143.702.46-.072.27-.302.518-.612.44zm-9.385 1.265c.487-.303 1.181.148 1.106.705-.025.561-.783.887-1.211.507-.414-.298-.351-.982.105-1.212zm7.43.322c.217-.55 1.097-.568 1.344-.032.245.417-.056.934-.491 1.076-.577.106-1.124-.508-.853-1.044zm-4.069 1.013c-.005-.474.433-.826.89-.859.304.06.634.187.764.488.243.416.027.987-.41 1.178-.2.11-.438.069-.656.056-.333-.16-.614-.477-.588-.863zm-7.666.69c.445-.27 1.045.22.876.696-.092.411-.654.578-.975.316-.343-.246-.289-.837.1-1.013zM23.9 9.786c.377-.288 1 .043.954.511.026.427-.513.75-.887.53-.412-.183-.455-.807-.067-1.04zm-6.64.851c.622-.22 1.362.043 1.716.59.468.667.22 1.683-.507 2.066-.752.453-1.851.07-2.13-.758-.315-.74.145-1.666.92-1.898zm-3.653.073c.69-.32 1.619-.052 1.952.642.392.676.089 1.617-.612 1.966-.702.393-1.693.095-2.032-.63-.381-.702-.043-1.655.692-1.978zM9.95 11.94c.053-.437.472-.722.895-.752.456.055.82.403.87.857-.03.45-.383.888-.867.886-.533.045-1-.477-.898-.991zm10.802-.656c.547-.313 1.306.142 1.282.76.037.655-.803 1.116-1.347.732-.566-.32-.522-1.22.065-1.492zm-8.63 2.307c.638-.173 1.37.123 1.683.701.343.582.203 1.39-.33 1.818-.685.626-1.946.374-2.31-.48-.419-.783.09-1.833.956-2.04zm6.927-.003c.621-.175 1.351.06 1.685.617.442.637.231 1.588-.426 1.998-.69.477-1.756.227-2.136-.519-.46-.771.003-1.861.877-2.096zm-11.04.726c.552-.205 1.164.394.94.933-.136.49-.839.672-1.202.31-.425-.34-.268-1.095.262-1.243zm14.969.782a.836.836 0 0 1 .788-.874c.378.06.746.36.716.765.035.535-.62.898-1.084.647-.217-.109-.328-.328-.42-.538zM5.294 14.58c.332-.143.743.14.667.503-.018.411-.635.57-.861.226-.2-.239-.08-.606.194-.73zm20.949-.009c.234-.163.61-.046.702.223.157.294-.131.696-.467.647-.472.042-.624-.665-.235-.87zm-12.317 1.973c.874-.223 1.814.494 1.82 1.38.056.895-.87 1.688-1.764 1.482-.692-.11-1.235-.766-1.212-1.453-.002-.658.502-1.27 1.156-1.409zm3.462-.001c.887-.244 1.855.486 1.841 1.392.047.878-.85 1.645-1.726 1.47-.825-.104-1.433-.995-1.203-1.783.116-.524.562-.95 1.088-1.08zm-6.676.545c.614-.103 1.19.57.941 1.144-.182.612-1.086.777-1.486.278-.468-.48-.118-1.356.545-1.422zm10.154.027c.548-.226 1.22.24 1.178.825.022.643-.808 1.087-1.343.711-.607-.337-.496-1.33.165-1.536zm2.838 2.8c-.214-.393.175-.914.62-.841.22-.004.375.167.516.311.029.233.078.511-.119.69-.267.333-.872.238-1.017-.16zm-16.268-.732c.415-.271 1.012.134.918.61-.05.423-.59.664-.945.424-.382-.217-.368-.836.027-1.034zm8.193.883c.543-.235 1.235.23 1.183.818.04.65-.815 1.1-1.346.71-.59-.335-.491-1.321.163-1.528zm-3.794.871c.462-.239 1.082.174 1.04.684.014.418-.4.774-.82.712-.347-.007-.573-.314-.685-.605.006-.317.139-.67.465-.79zm7.686.008c.476-.29 1.152.126 1.107.67.012.57-.752.934-1.195.56-.428-.293-.376-.997.088-1.23zm1.337 3.25c-.212-.314.037-.693.38-.765.277.055.57.26.511.574-.04.427-.674.557-.891.192zm-10.611-.273c.084-.25.288-.497.587-.432.435.03.564.676.183.875-.342.227-.74-.084-.77-.443zm5.12.287c.083-.37.568-.549.888-.353.212.09.274.322.328.52-.029.103-.055.207-.08.31-.131.152-.3.305-.518.3-.405.047-.771-.404-.619-.777z"/><filter id="d" width="115.9%" height="117.5%" x="-8%" y="-6.3%" filterUnits="objectBoundingBox"><feOffset dy=".5" in="SourceAlpha" result="shadowOffsetOuter1"/><feGaussianBlur in="shadowOffsetOuter1" result="shadowBlurOuter1" stdDeviation=".5"/><feColorMatrix in="shadowBlurOuter1" values="0 0 0 0 0 0 0 0 0 0 0 0 0 0 0 0 0 0 0.204257246 0"/></filter></defs><g fill="none" fill-rule="evenodd"><use fill="#000" filter="url(#a)" xlink:href="#b"/><use fill="#3CC8C8" xlink:href="#b"/><use fill="url(#c)" style="mix-blend-mode:soft-light" xlink:href="#b"/><circle cx="16" cy="15" r="14.5" stroke="#000" stroke-opacity=".097"/><g fill-rule="nonzero"><use fill="#000" filter="url(#d)" xlink:href="#e"/><use fill="#FFF" fill-rule="evenodd" xlink:href="#e"/></g></g></svg>
